newicons/emoji_rounded_symbol_for_shuangxi.svg

<?xml version="1.0" encoding="UTF-8" standalone="no"?>
<svg
   version="1.2"
   viewBox="0 0 48 48"
   id="svg7"
   xmlns="http://www.w3.org/2000/svg"
   xmlns:svg="http://www.w3.org/2000/svg">
  <defs
     id="defs1" />
  <path
     d="M 26.303571,24 H 41.507143 A 17.660714,17.660681 0 0 0 40.739285,19.392867 H 26.303571 V 24"
     fill="none"
     stroke="#ffffff"
     stroke-linecap="round"
     stroke-linejoin="round"
     stroke-width="0"
     id="path1"
     style="stroke-width:1;stroke-dasharray:none" />
  <path
     d="M 21.696429,24 H 6.492857 A 17.660714,17.660681 0 0 1 7.2607149,19.392867 H 21.696429 V 24"
     fill="none"
     stroke="#ffffff"
     stroke-linecap="round"
     stroke-linejoin="round"
     stroke-width="0"
     id="path2"
     style="stroke-width:1;stroke-dasharray:none" />
  <path
     d="M 9.0267858,14.785733 H 38.973215 M 13.250001,10.1786 H 34.75 M 20.160716,6.7232489 v 8.0624841 m 7.67857,-8.0624841 v 8.0624841"
     fill="none"
     stroke="#ffffff"
     stroke-linecap="round"
     stroke-linejoin="round"
     stroke-width="0"
     id="path3"
     style="stroke-width:1;stroke-dasharray:none" />
  <path
     d="M 7.1071433,28.607135 H 40.892858 M 17.857144,24 v 9.214269 M 30.142856,24 v 9.214269"
     fill="none"
     stroke="#ffffff"
     stroke-linecap="round"
     stroke-linejoin="round"
     stroke-width="0"
     id="path4"
     style="stroke-width:1;stroke-dasharray:none" />
  <path
     d="M 21.696429,33.214269 H 9.0267858 a 17.660714,17.660681 0 0 0 12.6696432,8.292842 v -8.292842"
     fill="none"
     stroke="#ffffff"
     stroke-linecap="round"
     stroke-linejoin="round"
     stroke-width="0"
     id="path5"
     style="stroke-width:1;stroke-dasharray:none" />
  <path
     d="M 26.303571,33.214269 H 38.973215 A 17.660714,17.660681 0 0 1 26.303571,41.507111 V 33.214269"
     fill="none"
     stroke="#ffffff"
     stroke-linecap="round"
     stroke-linejoin="round"
     stroke-width="0"
     id="path6"
     style="stroke-width:1;stroke-dasharray:none" />
  <path
     d="M 2.5000002,24 A 21.5,21.499959 0 1 0 45.5,24 21.5,21.499959 0 1 0 2.5000002,24"
     fill="none"
     stroke="#ffffff"
     stroke-linecap="round"
     stroke-linejoin="round"
     stroke-width="0"
     id="path7"
     style="stroke-width:1;stroke-dasharray:none" />
</svg>

<?xml version="1.0" encoding="UTF-8"?><svg id="a" xmlns="http://www.w3.org/2000/svg" viewBox="0 0 48 48"><defs><style>.i{fill:none;stroke:#fff;stroke-linecap:round;stroke-linejoin:round;}</style></defs><path id="b" class="i" d="M26.3036,24h15.2036c-.0509-1.5629-.3091-3.1122-.7679-4.6071h-14.4357v4.6071"/><path id="c" class="i" d="M21.6964,24H6.4929c.0509-1.5629.3091-3.1122.7679-4.6071h14.4357v4.6071"/><path id="d" class="i" d="M9.0268,14.7857h29.9464M13.25,10.1786h21.5M20.1607,6.7232v8.0625M27.8393,6.7232v8.0625"/><path id="e" class="i" d="M7.1071,28.6071h33.7857M17.8571,24v9.2143M30.1429,24v9.2143"/><path id="f" class="i" d="M21.6964,33.2143h-12.6696c2.7638,4.5264,7.4155,7.5711,12.6696,8.2928v-8.2928"/><path id="g" class="i" d="M26.3036,33.2143h12.6696c-2.7638,4.5264-7.4155,7.5711-12.6696,8.2928v-8.2928"/><path id="h" class="i" d="M2.5,24c-.0013,11.8741,9.6236,21.501,21.4977,21.5022,11.8741.0013,21.501-9.6236,21.5023-21.4977v-.0045c.0013-11.8741-9.6236-21.501-21.4977-21.5022-11.8741-.0013-21.501,9.6236-21.5023,21.4977,0,.0015,0,.003,0,.0045"/></svg>
